icons/line/play-circle.svg

<svg width="24" height="24" viewBox="0 0 24 24" fill="none" xmlns="http://www.w3.org/2000/svg">
<path fill-rule="evenodd" clip-rule="evenodd" d="M4 12C4 7.58172 7.58172 4 12 4C16.4183 4 20 7.58172 20 12C20 16.4183 16.4183 20 12 20C7.58172 20 4 16.4183 4 12ZM12 2C6.47715 2 2 6.47715 2 12C2 17.5228 6.47715 22 12 22C17.5228 22 22 17.5228 22 12C22 6.47715 17.5228 2 12 2ZM12.2804 7.5986C10.9777 6.51305 9 7.43937 9 9.13504V14.865C9 16.5606 10.9777 17.4869 12.2804 16.4014L15.7183 13.5364C16.6778 12.7369 16.6778 11.2631 15.7183 10.4636L12.2804 7.5986ZM11 9.13504L14.438 12L11 14.865V9.13504Z" fill="currentColor"/>
</svg>

<svg width="24" height="24" fill="none" xmlns="http://www.w3.org/2000/svg"><path fill-rule="evenodd" clip-rule="evenodd" d="M4 12a8 8 0 1116 0 8 8 0 01-16 0zm8-10C6.477 2 2 6.477 2 12s4.477 10 10 10 10-4.477 10-10S17.523 2 12 2zm.28 5.599C10.978 6.513 9 7.439 9 9.135v5.73c0 1.696 1.978 2.622 3.28 1.536l3.438-2.865a2 2 0 000-3.072L12.28 7.599zM11 9.135L14.438 12 11 14.865v-5.73z" fill="currentColor"/></svg>
